images/comment_hover.svg

<svg width="18" height="19" fill="none" xmlns="http://www.w3.org/2000/svg"><mask id="a" fill="#fff"><path fill-rule="evenodd" clip-rule="evenodd" d="M0 0h18v14H6l-6 5V0zm3 4h12v2H3V4zm0 4h7v2H3V8z"/></mask><path fill-rule="evenodd" clip-rule="evenodd" d="M0 0h18v14H6l-6 5V0zm3 4h12v2H3V4zm0 4h7v2H3V8z" fill="#8F68FC"/><path d="M18 0h2v-2h-2v2zM0 0v-2h-2v2h2zm18 14v2h2v-2h-2zM6 14v-2h-.724l-.556.464L6 14zm-6 5h-2v4.27l3.28-2.734L0 19zM15 4h2V2h-2v2zM3 4V2H1v2h2zm12 2v2h2V6h-2zM3 6H1v2h2V6zm7 2h2V6h-2v2zM3 8V6H1v2h2zm7 2v2h2v-2h-2zm-7 0H1v2h2v-2zM18-2H0v4h18v-4zm2 16V0h-4v14h4zM6 16h12v-4H6v4zm-4.72 4.536l6-5-2.56-3.072-6 5 2.56 3.072zM-2 17v2h4v-2h-4zm0-3v3h4v-3h-4zm0-14v14h4V0h-4zm17 2H3v4h12V2zm2 4V4h-4v2h4zM3 8h12V4H3v4zM1 4v2h4V4H1zm9 2H3v4h7V6zm2 4V8H8v2h4zm-9 2h7V8H3v4zM1 8v2h4V8H1z" fill="#8F68FC" mask="url(#a)"/></svg>

<svg width="18" height="19" viewBox="0 0 18 19" fill="none" xmlns="http://www.w3.org/2000/svg">
<mask id="path-1-inside-1" fill="white">
<path fill-rule="evenodd" clip-rule="evenodd" d="M0 0H18V14H6L0 19V17V14V0ZM3 4H15V6H3V4ZM3 8H10V10H3V8Z"/>
</mask>
<path fill-rule="evenodd" clip-rule="evenodd" d="M0 0H18V14H6L0 19V17V14V0ZM3 4H15V6H3V4ZM3 8H10V10H3V8Z" fill="#8F68FC"/>
<path d="M18 0H20V-2H18V0ZM0 0V-2H-2V0H0ZM18 14V16H20V14H18ZM6 14V12H5.2759L4.71963 12.4636L6 14ZM0 19H-2V23.2701L1.28037 20.5364L0 19ZM15 4H17V2H15V4ZM3 4V2H1V4H3ZM15 6V8H17V6H15ZM3 6H1V8H3V6ZM10 8H12V6H10V8ZM3 8V6H1V8H3ZM10 10V12H12V10H10ZM3 10H1V12H3V10ZM18 -2H0V2H18V-2ZM20 14V0H16V14H20ZM6 16H18V12H6V16ZM1.28037 20.5364L7.28037 15.5364L4.71963 12.4636L-1.28037 17.4636L1.28037 20.5364ZM-2 17V19H2V17H-2ZM-2 14V17H2V14H-2ZM-2 0V14H2V0H-2ZM15 2H3V6H15V2ZM17 6V4H13V6H17ZM3 8H15V4H3V8ZM1 4V6H5V4H1ZM10 6H3V10H10V6ZM12 10V8H8V10H12ZM3 12H10V8H3V12ZM1 8V10H5V8H1Z" fill="#8F68FC" mask="url(#path-1-inside-1)"/>
</svg>
